X: 17361
T: High Hills Of Largy, The
R: reel
M: 4/4
K: Dmajor
A|:d2fe dBAF|GABG ~F3E|DEFA defa|~g2fg egfe|
d2fe dBAF|GABG ~F3E|DEFA df~f2|1 gece dABc:|2 gece d2fg||
~a3g fdAF|G2AG ~F3E|DEFA defa|~g2fg eAce|
~a3g fdAF|G2AG ~F3E|DEFA df~f2|gece d2fg|
(3agf ge fdAF|G2AG ~F3E|DF~F2 GB~B2|~a3f gece|
df~f2 gfec|d2AF GFEF|DEFA df~f2|gece d2z:|

